X:1
T:Silver Wings in the Moonlight
T:Silver wings in the moonlight
T:Sonny Miller, Leo Towers
T:Hugh Charles
C:Leo Towers, Sonny Miller
Z:All Rights Reserved
L:1/8
M:4/4
K:C
V:1 treble nm="Electric Piano"
%%MIDI program 4
V:1
 z2 z"^N.C." G AGFE |:"Dm7" G4 D4 |"G" z2 z A BAG^F |"Cmaj7" G8 |"C" z2 z c d"Eb"cBA | %5
w: Sil- ver wings in the|moon- light|fly- ing high up a|bove|while I'm pa- tient- ly|
w: |moon- light|sil- ver bird in the|sky|man- y times has he|
"Dm7" c4 F4 |1"G" z2 z D EFcB ||"Cmaj7" E8 |1"C" z2 z G AGFE :|2"G" z2 z D EFAB, ||"C" C8 | %11
w: wait- ing|please take care of my|love|Sil- ver wings in the|he loves both you and|I|
w: told me||||||
"C" z2 C2 E2 G2 |"Gm7" _BAGB-"Eb" B4 |"C7" _BAGB- =B2 c2 |"Fmaj7" _BA^GA- A4 |"F" z2 D2 ^F2 A2 | %16
w: So I must|share him with you *|what can I do? * It|just has to be *|I'll nev- er|
w: |||||
"Am7" cBAc-"F7" c4 |"D7" cBAc- c2 d2 |"G7" cB^AB- B4 | z2 z G AGFE |"Dm7" G4 D4 |"G" z2 z A BAG^F | %22
w: keep him from you *|hon- est if you * wont|keep him from me *|If you love him like|I do|take him safe- ly and|
w: ||||||
"Cmaj7" G8 | z2"C" z c d"Eb"cBA |"Dm7" c4 F4 |"G" z2 z D EFAB, |"C" C2 z D/E/"Fm" FA B2 | %27
w: then|sil- ver wings in the|moon- light|bring him home- ward a|gain. * * * * *|
w: |||||
"C" c4 z4 |] %28
w: |
w: |

